X:2278
T:Yn shagg 
T:The Cormorant
C:Traditional
C:Mrs D Christeen, Peel
O:Isle of Man
N:'A' part KV278 with 'B' part KV279 (untitled) assumed to be parts of the same tune 
Z:Clague collection
B:Kiaull Vannin #278 and #279 
M:2/4 
L:1/8 
Q:150 
K:G 
dddd|edcB|ccce|dc BA|GG/G/ AA/A/|BB/B/ c2|GG/G/ AA|BA G2|| 
DGGG|GGBG|DGGG|GB A2|AA FF|DD cc|BB AA|G4|| 

